public/assets/icons/twitter.svg

<svg xmlns="http://www.w3.org/2000/svg" width="24" height="24" fill="none" viewBox="0 0 24 24"><g clip-path="url(#clip0_1314_14816)"><path fill="#fff" stroke="#fff" stroke-width=".2" d="M13.2794 10.95L18.275 5.14283H17.0911L12.7535 10.185L9.28897 5.14283H5.29297L10.532 12.7675L5.29297 18.8571H6.4769L11.0577 13.5324L14.7164 18.8571H18.7124L13.2794 10.95ZM6.90343 6.03404H8.72186L17.0916 18.0064H15.2734L6.90343 6.03404Z"/></g><defs><clipPath id="clip0_1314_14816"><rect width="13.714" height="13.714" fill="#fff" transform="translate(5.14453 5.14282)"/></clipPath></defs></svg>

<svg fill="none" viewBox="0 0 24 24"><g clip-path="url(#clip0_1314_14816)"><path fill="#fff" stroke="#fff" stroke-width=".2" d="M13.28 10.95l4.995-5.807h-1.184l-4.338 5.042L9.29 5.143H5.293l5.239 7.625-5.239 6.09h1.184l4.58-5.326 3.66 5.325h3.995L13.28 10.95zM6.902 6.034h1.819l8.37 11.972h-1.819L6.903 6.034z"/></g><defs><clipPath id="clip0_1314_14816"><path fill="#fff" d="M0 0h13.714v13.714H0z" transform="translate(5.145 5.143)"/></clipPath></defs></svg>
